dist/assets/img/result-slow.svg

<svg xmlns="http://www.w3.org/2000/svg" width="29" height="32"><path fill-rule="evenodd" fill="#188B5A" d="M26.318 14.528l-.002.002a12.74 12.74 0 00-3.278-4.264c2.015-1.861 4.258-2.63 5.233-1.714 1.074 1.009.2 3.685-1.953 5.976zm-7.566-9.45c-.026.905-.208 1.313-.512 2.559a12.727 12.727 0 00-3.408-.463c-1.18 0-2.323.162-3.407.463-.329-1.345-.517-.598-.517-1.672 0-.289.014-.574.041-.852a1.83 1.83 0 011.065-3.28C12.727.718 13.726.024 14.832.024c1.107 0 2.105.694 2.819 1.809a1.827 1.827 0 011.101 3.245zm-6.68-2.569a1.155 1.155 0 100 2.31 1.155 1.155 0 000-2.31zm6.667 2.581c-.008.007-.014.016-.023.023.009.098.017.056.023-.023zm-1.147-2.581a1.156 1.156 0 100 2.312 1.156 1.156 0 000-2.312zM3.349 14.53l-.002-.002C1.194 12.237.319 9.561 1.394 8.552c.974-.916 3.217-.147 5.233 1.714a12.74 12.74 0 00-3.278 4.264zm3.206 15.058c-1.997 1.813-4.198 2.555-5.161 1.65-1.068-1.004-.21-3.654 1.916-5.936a12.744 12.744 0 003.245 4.286zM4.89 26.28l4.754-2.745 4.804 2.774v5.423A11.772 11.772 0 014.89 26.28zm-.442-.754a11.729 11.729 0 01-1.397-5.569c0-1.964.482-3.817 1.332-5.446l4.768 2.753v5.547l-4.703 2.715zm10-17.343v5.423L9.644 16.38 4.89 13.635a11.772 11.772 0 019.558-5.452zm-4.42 9.081l4.804-2.774 4.804 2.774v5.547l-4.804 2.774-4.804-2.774v-5.547zm14.776 8.969a11.773 11.773 0 01-9.478 5.495v-5.419l4.804-2.774 4.674 2.698zm-9.478-12.627V8.187a11.774 11.774 0 019.478 5.494L20.13 16.38l-4.804-2.774zm11.288 6.351c0 2.015-.506 3.911-1.398 5.569l-4.702-2.715v-5.547l4.767-2.753a11.73 11.73 0 011.333 5.446zm-.259 5.345c2.125 2.282 2.984 4.932 1.916 5.936-.963.905-3.165.163-5.161-1.65a12.744 12.744 0 003.245-4.286z"/></svg>

<svg
  xmlns="http://www.w3.org/2000/svg"
  xmlns:xlink="http://www.w3.org/1999/xlink"
  width="29px" height="32px">
  <path fill-rule="evenodd"  fill="rgb(24, 139, 90)"
        d="M26.318,14.528 C26.317,14.528 26.317,14.529 26.316,14.530 C25.536,12.883 24.413,11.431 23.038,10.266 C25.053,8.405 27.296,7.636 28.271,8.552 C29.345,9.561 28.471,12.237 26.318,14.528 ZM18.752,5.078 C18.726,5.983 18.544,6.391 18.240,7.637 C17.155,7.336 16.013,7.174 14.832,7.174 C13.652,7.174 12.509,7.336 11.425,7.637 C11.096,6.292 10.908,7.039 10.908,5.965 C10.908,5.676 10.922,5.391 10.949,5.113 C10.517,4.777 10.238,4.254 10.238,3.665 C10.238,2.671 11.028,1.864 12.014,1.833 C12.727,0.718 13.726,0.024 14.832,0.024 C15.939,0.024 16.937,0.718 17.651,1.833 C18.637,1.864 19.427,2.671 19.427,3.665 C19.427,4.236 19.161,4.741 18.752,5.078 ZM12.072,2.509 C11.434,2.509 10.917,3.026 10.917,3.665 C10.917,4.303 11.434,4.821 12.072,4.821 C12.711,4.821 13.228,4.303 13.228,3.665 C13.228,3.026 12.711,2.509 12.072,2.509 ZM18.739,5.090 C18.731,5.097 18.725,5.106 18.716,5.113 C18.725,5.211 18.733,5.169 18.739,5.090 ZM17.592,2.509 C16.954,2.509 16.436,3.026 16.436,3.665 C16.436,4.303 16.954,4.821 17.592,4.821 C18.231,4.821 18.748,4.303 18.748,3.665 C18.748,3.026 18.231,2.509 17.592,2.509 ZM3.349,14.530 C3.348,14.529 3.348,14.528 3.347,14.528 C1.194,12.237 0.319,9.561 1.394,8.552 C2.368,7.636 4.611,8.405 6.627,10.266 C5.252,11.431 4.129,12.883 3.349,14.530 ZM6.555,29.588 C4.558,31.401 2.357,32.143 1.394,31.238 C0.326,30.234 1.184,27.584 3.310,25.302 C4.078,26.954 5.190,28.414 6.555,29.588 ZM4.890,26.280 L9.644,23.535 L14.448,26.309 L14.448,31.732 C10.428,31.603 6.917,29.461 4.890,26.280 ZM4.448,25.526 C3.557,23.868 3.051,21.972 3.051,19.957 C3.051,17.993 3.533,16.140 4.383,14.511 L9.151,17.264 L9.151,22.811 L4.448,25.526 ZM14.448,8.183 L14.448,13.606 L9.644,16.380 L4.890,13.635 C6.917,10.454 10.428,8.312 14.448,8.183 ZM10.028,17.264 L14.832,14.490 L19.636,17.264 L19.636,22.811 L14.832,25.585 L10.028,22.811 L10.028,17.264 ZM24.804,26.233 C22.800,29.411 19.320,31.563 15.326,31.728 L15.326,26.309 L20.130,23.535 L24.804,26.233 ZM15.326,13.606 L15.326,8.187 C19.320,8.352 22.800,10.504 24.804,13.681 L20.130,16.380 L15.326,13.606 ZM26.614,19.957 C26.614,21.972 26.108,23.868 25.216,25.526 L20.514,22.811 L20.514,17.264 L25.281,14.511 C26.132,16.140 26.614,17.993 26.614,19.957 ZM26.355,25.302 C28.480,27.584 29.339,30.234 28.271,31.238 C27.308,32.143 25.106,31.401 23.110,29.588 C24.475,28.414 25.587,26.954 26.355,25.302 Z"/>
</svg>
